polaris-icons/icons/newicons/TimeDecayModelMinor.svg

<svg width="20" height="20" viewBox="0 0 20 20" fill="none" xmlns="http://www.w3.org/2000/svg">
<path d="M16 3.75C16 3.33579 15.6642 3 15.25 3C14.8358 3 14.5 3.33579 14.5 3.75V16.25C14.5 16.6642 14.8358 17 15.25 17C15.6642 17 16 16.6642 16 16.25V3.75Z" fill="black"/>
<path d="M5.5 13.75C5.5 13.3358 5.16421 13 4.75 13C4.33579 13 4 13.3358 4 13.75V16.25C4 16.6642 4.33579 17 4.75 17C5.16421 17 5.5 16.6642 5.5 16.25V13.75Z" fill="black"/>
<path d="M8.25 10C8.66421 10 9 10.3358 9 10.75V16.25C9 16.6642 8.66421 17 8.25 17C7.83579 17 7.5 16.6642 7.5 16.25V10.75C7.5 10.3358 7.83579 10 8.25 10Z" fill="black"/>
<path d="M12.5 7.75C12.5 7.33579 12.1642 7 11.75 7C11.3358 7 11 7.33579 11 7.75V16.25C11 16.6642 11.3358 17 11.75 17C12.1642 17 12.5 16.6642 12.5 16.25V7.75Z" fill="black"/>
</svg>

<svg viewBox="0 0 20 20" fill="none" xmlns="http://www.w3.org/2000/svg"><path d="M16 3.75a.75.75 0 0 0-1.5 0v12.5a.75.75 0 0 0 1.5 0v-12.5Z" fill="#5C5F62"/><path d="M5.5 13.75a.75.75 0 0 0-1.5 0v2.5a.75.75 0 0 0 1.5 0v-2.5Z" fill="#5C5F62"/><path d="M8.25 10a.75.75 0 0 1 .75.75v5.5a.75.75 0 0 1-1.5 0v-5.5a.75.75 0 0 1 .75-.75Z" fill="#5C5F62"/><path d="M12.5 7.75a.75.75 0 0 0-1.5 0v8.5a.75.75 0 0 0 1.5 0v-8.5Z" fill="#5C5F62"/></svg>
